usr/share/icons/biglinux-icons-material-dark/22/actions/format-add-node.svg

<svg xmlns="http://www.w3.org/2000/svg" viewBox="0 0 22 22">
  <defs id="defs3051">
    <style type="text/css" id="current-color-scheme">
      .ColorScheme-Text {
        color:#dedede;
      }
      </style>
  </defs>
 <path 
    style="fill:currentColor;fill-opacity:1;stroke:none" 
	d="m4.5 3c-.831 0-1.5.669-1.5 1.5 0 .6542.418077 1.202203 1 1.408203v10.0918h-1v3h3v-1h7v-1h-7v-1h-1v-10.0918c.424456-.1503.756746-.485503.908203-.908203h10.0918v1h1v7h1v-7h1v-3h-3v1h-10.0918c-.206006-.5819-.753963-1-1.408203-1m0 1c.277 0 .5.223.5.5 0 .277-.223.5-.5.5-.277 0-.5-.223-.5-.5 0-.277.223-.5.5-.5m12.5 0h1v1h-1v-1m-1 10v2h-2v1h2v2h1v-2h2v-1h-2v-2h-1m-12 3h1v1h-1v-1" 
    class="ColorScheme-Text"
    />  
</svg>

<svg xmlns="http://www.w3.org/2000/svg" viewBox="0 0 22 22">
<defs id="defs3051">
<style id="current-color-scheme" type="text/css">
.ColorScheme-Text{color:#dedede}
</style>
</defs>
<path d="M4.5 3A1.497 1.497 0 0 0 4 5.908V16H3v3h3v-1h7v-1H6v-1H5V5.908c.424-.15.757-.485.908-.908H16v1h1v7h1V6h1V3h-3v1H5.908c-.206-.582-.754-1-1.408-1m0 1a.499.499 0 1 1 0 1 .499.499 0 1 1 0-1M17 4h1v1h-1zm-1 10v2h-2v1h2v2h1v-2h2v-1h-2v-2zM4 17h1v1H4z" class="ColorScheme-Text" style="fill:currentColor;fill-opacity:1;stroke:none"/>
</svg>
